public/topics/14.svg

<svg width="250" height="250" viewBox="0 0 250 250" fill="none" xmlns="http://www.w3.org/2000/svg">
<rect width="250" height="250" rx="30" fill="#996699"/>
<path d="M81.6 89.8C80.2667 115.933 79.6 136.733 79.6 152.2C79.6 160.2 79.8 167.8 80.2 175C81.2667 175.8 83.3333 176.2 86.4 176.2L91 176C92.8667 175.733 94.6 175.6 96.2 175.6C99.6667 175.6 102.333 176.2 104.2 177.4C106.2 178.6 107.2 180.933 107.2 184.4C107.2 187.733 106.2 190.333 104.2 192.2C102.333 194.067 98.4 195 92.4 195C87.3333 195 81.2 194.6 74 193.8C72.2667 193.667 70.6 193.533 69 193.4C67.4 193.267 65.9333 193.2 64.6 193.2C57.2667 193.333 51.8 193.6 48.2 194C44.6 194.4 40.5333 194.6 36 194.6C31.8667 194.6 29.8 191.467 29.8 185.2C29.8 179.2 33.6667 176.2 41.4 176.2C42.6 176.2 44.5333 176.333 47.2 176.6C49.4667 177 51.8667 177.2 54.4 177.2C55.8667 177.2 57.0667 177.133 58 177C58.1333 168.067 58.6 155.067 59.4 138C60.2 118 60.6 103.2 60.6 93.6C59.9333 93.7333 57.6 94.6667 53.6 96.4C47.4667 99.4667 42.9333 101 40 101C38.4 101 36.9333 100.2 35.6 98.6C34.2667 96.8667 33.6 94.8667 33.6 92.6C33.6 90.3333 35 88.1333 37.8 86C40.6 83.8667 45.1333 81.0667 51.4 77.6C54.8667 75.8667 58.2 73.9333 61.4 71.8C62.2 71.2667 63.3333 70.7333 64.8 70.2C66.4 69.6667 67.6 69.4 68.4 69.4C71.8667 69.4 75 70.1333 77.8 71.6C80.7333 72.9333 82.2 74.7333 82.2 77L81.6 89.8ZM158.973 75C158.973 81.5333 157.773 89.1333 155.373 97.8C153.107 106.333 149.773 116.867 145.373 129.4L140.773 143.2C143.04 143.6 145.373 143.8 147.773 143.8C151.907 143.8 158.107 143.4 166.373 142.6C174.64 141.8 180.573 141.4 184.173 141.4L183.973 119.4C183.707 104.2 183.573 93 183.573 85.8C183.573 76.3333 186.707 71.6 192.973 71.6C197.907 71.6 201.04 72.8667 202.373 75.4C203.84 77.9333 204.573 81.7333 204.573 86.8C204.573 92 204.173 100.067 203.373 111C203.24 113.133 203.04 116.667 202.773 121.6C202.507 126.533 202.373 130.8 202.373 134.4L202.573 140.8L206.573 140.6C209.773 140.333 212.24 140.2 213.973 140.2C217.173 140.2 220.24 141.267 223.173 143.4C226.107 145.4 227.573 147.8 227.573 150.6C227.573 153.933 227.04 156.533 225.973 158.4C225.04 160.267 223.907 161.2 222.573 161.2C220.307 161.2 217.44 160.933 213.973 160.4C213.173 160.4 211.973 160.333 210.373 160.2C208.773 159.933 207.24 159.8 205.773 159.8L202.373 160L202.573 187C202.573 189.8 201.64 191.933 199.773 193.4C197.907 194.867 195.773 195.6 193.373 195.6C190.44 195.6 187.84 194.667 185.573 192.8C183.307 190.933 182.173 188.6 182.173 185.8C182.173 176.867 182.307 169.867 182.573 164.8C182.707 163.6 182.773 162.133 182.773 160.4C178.773 160.267 171.84 160.733 161.973 161.8C152.64 162.867 145.573 163.4 140.773 163.4C134.64 163.4 129.44 162.533 125.173 160.8C121.04 159.067 118.973 156.333 118.973 152.6C118.973 149 119.707 144.6 121.173 139.4C122.64 134.2 124.84 127.2 127.773 118.4C129.107 114.933 130.107 112.067 130.773 109.8C133.173 103 134.973 97.2667 136.173 92.6C137.373 87.8 138.707 82 140.173 75.2C140.707 73.0667 141.84 71.4667 143.573 70.4C145.307 69.3333 147.307 68.8 149.573 68.8C151.973 68.8 154.107 69.4 155.973 70.6C157.973 71.6667 158.973 73.1333 158.973 75Z" fill="white"/>
</svg>

<svg xmlns="http://www.w3.org/2000/svg" width="250" height="250" fill="none" viewBox="0 0 250 250"><rect width="250" height="250" fill="#969" rx="30"/><path fill="#fff" d="M81.6 89.8q-2 39.2-2 62.4 0 12 .6 22.8 1.6 1.2 6.2 1.2l4.6-.2q2.8-.4 5.2-.4 5.2 0 8 1.8 3 1.8 3 7 0 5-3 7.8-2.8 2.8-11.8 2.8-7.6 0-18.4-1.2a789 789 0 0 1-5-.4 54 54 0 0 0-4.4-.2q-11 .2-16.4.8t-12.2.6q-6.2 0-6.2-9.4 0-9 11.6-9 1.8 0 5.8.4 3.4.6 7.2.6 2.2 0 3.6-.2.2-13.4 1.4-39 1.2-30 1.2-44.4-1 .2-7 2.8Q44.4 101 40 101q-2.4 0-4.4-2.4-2-2.6-2-6t4.2-6.6 13.6-8.4a93 93 0 0 0 10-5.8q1.2-.8 3.4-1.6 2.4-.8 3.6-.8 5.2 0 9.4 2.2 4.4 2 4.4 5.4zM158.973 75q0 9.8-3.6 22.8-3.4 12.8-10 31.6l-4.6 13.8q3.4.6 7 .6 6.201 0 18.6-1.2t17.8-1.2l-.2-22q-.4-22.8-.4-33.6 0-14.2 9.4-14.2 7.4 0 9.4 3.8 2.2 3.8 2.2 11.4 0 7.8-1.2 24.2-.2 3.2-.6 10.6t-.4 12.8l.2 6.4 4-.2q4.8-.4 7.4-.4 4.8 0 9.2 3.2 4.4 3 4.4 7.2 0 5-1.6 7.8-1.4 2.8-3.4 2.8-3.4 0-8.6-.8-1.2 0-3.6-.2-2.4-.4-4.6-.4l-3.4.2.2 27q0 4.2-2.8 6.4t-6.4 2.2q-4.4 0-7.8-2.8t-3.4-7q0-13.4.4-21 .2-1.8.2-4.4-6-.2-20.8 1.4-14 1.6-21.2 1.6-9.2 0-15.6-2.6-6.2-2.6-6.2-8.2 0-5.4 2.2-13.2t6.6-21q2.001-5.2 3-8.6 3.6-10.2 5.4-17.2 1.8-7.2 4-17.4.8-3.2 3.4-4.8 2.601-1.6 6-1.6 3.6 0 6.4 1.8 3 1.6 3 4.4"/></svg>
